X:1
T:When the City Cometh Down
T:When the City Cometh Down
T:L. A. Morris
T:L. A. Morris, 1910
T:Public Domain Courtesy of the Cyber Hymnal™
T:Public Domain Courtesy of the Cyber Hymnal™
C:L. A. Morris
Z:Public Domain
Z:Courtesy of the Cyber Hymnal™
%%score ( 1 2 ) ( 3 4 )
L:1/8
Q:1/4=95
M:4/4
K:A
V:1 treble 
V:2 treble 
V:3 bass 
V:4 bass 
V:1
 [CE][CF] | [CA][CA][CA][DB] [CA][CE][DF][DA] | [CE]6 [CE][CA] | %3
w: 1.~Oh, the|ci- ty of the Lord is com- ing|down, Oh, the|
w: 2.~There’ll be|joy in earth and Hea- ven in that|day, There’ll be|
w: 3.~All the|peo- ple of the Lord shall be as|one, All the|
w: 4.~There will|be no death nor sor- row in that|day, There will|
w: 4.~In that|love- ly gold- en ci- ty we are|told, In that|
 [Ec][Ec][Ec][Ec] [Ec][DB][CA][Fc] | [Ge]6 [Ae][Ae] | [Af][Ae][Ae][Ac] [EB][EA][EA][Ac] | %6
w: ci- ty of the Lord is com- ing|down; When the|saints for Je- sus wait- ing Shall re-|
w: joy in earth and Hea- ven in that|day; We’ll sing|glo- ry, hal- le- lu- jah! When we|
w: peo- ple of the Lord shall be as|one; When the|Bride- groom comes in glo- ry, And we|
w: be no death nor sor- row in that|day; For the|hand of God, our Fa- ther, All our|
w: love- ly gold- en ci- ty we are|told; Saints will|all u- nite in sing- ing With a|
 [FB][FA][DF][DA] ([DF][CE])[CE][CF] | [FA]<[FA] A[AB] [Ac]2 [EB]<[EB] | A6 || %9
w: ceive the vic- tor’s crown, * When the|ci- ty of the Lord com- eth|down.|
w: all re- ceive a crown, * When the|ci- ty of the Lord com- eth|down.|
w: all re- ceive a crown, * When the|ci- ty of the Lord com- eth|down.|
w: tears shall wipe a- way, * When the|ci- ty of the Lord com- eth|down.|
w: gold- en harp and crown, * When the|ci- ty of the Lord com- eth|down.|
"^Refrain" [Ac]<[EA] | c2- ([Ac]<[GB] [FA]2) [^EB]<[Ec] | [FA-]F [FA]<[DF] [CE]2 [CE][CF] | %12
w: |||
w: |||
w: Com- eth|down, com- * * eth down,|* * * * * When the|
w: |||
w: |||
 [CA]<[CA] [CA][DB] [Ec]2 [FA]<[Fc] | [Ge]6 [Ae][Ae] | [Af][Ae][Ae][Ac] ([EB][EA])[EA][Ac] | %15
w: |||
w: |||
w: ci- ty of the Lord com- eth|down, There’ll be|glo- ry all a- round, * When the|
w: |||
w: |||
 [FB][FA][DF][DA] ([DF][CE])[CE][CF] | [FA]<[FA] A[AB] [Ac]2 [EB]<[EB] | A6 |] %18
w: |||
w: |||
w: wai- ting saints are crowned; * When the|ci- ty of the Lord com- eth|down.|
w: |||
w: |||
V:2
 x2 | x8 | x8 | x8 | x8 | x8 | x8 | x2 A x5 | (E2 F<F E2) || x2 | A A x6 | x8 | x8 | x8 | x8 | x8 | %16
 x2 A x5 | (E2 F<F E2) |] %18
V:3
 [A,,A,][A,,A,] | [A,,E,][A,,E,][A,,E,][A,,E,] [A,,E,][A,,A,][A,,A,][A,,F,] | A,6 A,A, | %3
w: ||Com- eth down,|
 A,A,A,A, A,[E,G,][F,A,][F,A,] | [E,B,]6 [A,C][A,C] | [A,D][A,C][A,C][A,E] [A,D][A,C][A,C][A,E] | %6
w: yes, com- eth down, Com- * * *|||
 [D,D][D,D][D,A,][F,A,] A,2 A,A, | [F,C]<[F,C] [F,C][F,D] [E,E]2 [E,D]<[E,D] | (C2 D<D C2) || %9
w: * * * * eth down, yes,|||
 A,<[A,C] | [A,E][A,E] [A,E]<[E,D] [F,C]2 [C,C]<[C,C] | [D,F,][D,A,] [D,A,]<[F,A,] A,2 A,A, | %12
w: com- eth|down, * * * * * *||
 A,<A, A,A, A,2 [F,A,]<[F,A,] | [E,B,]6 [A,C][A,C] | [A,D][A,C][A,C][A,E] ([A,D][A,C])[A,C][A,E] | %15
w: |||
 [D,D][D,D][D,A,][F,A,] A,2 A,A, | [F,C]<[F,C] [F,C][F,D] [E,E]2 [E,D]<[E,D] | (C2 D<D C2) |] %18
w: |||
V:4
 x2 | x8 | (A,,2 C,E, A,,2) A,A, | A,A,A,A, A, x3 | x8 | x8 | x4 A,2 A,A, | x8 | A,,6 || A,/ x3/2 | %10
 x8 | x4 A,2 A,A, | A,<A, A,A, A,2 x2 | x8 | x8 | x4 A,2 A,A, | x8 | A,,6 |] %18

